X: 1
T: Rakes of Kildare
C: Traditional
R: jig
Z: 2014 John Chambers <jc:trillian.mit.edu>
M: 6/8
L: 1/8
K: Ador
G |\
"Am"EAA AGA | Bcd e2f | "G"~g3 efe | dBA GFG |\
"Am"EAA AGA | Bcd e2f | "G"~g3 edB | "Am"A3 A2 :|
a |\
"Am"aea aea | aga b2a | "G"~g3 ege | dBA G2a |\
"Am"aea aea | aga b2a | "G"~g3 edB | "Am"A3 A2 ||
a |\
"Am"aea aea | aga b2a | "G"~g3 ege | dBG BAG |\
"Am"EAA AGA | Bcd e2f | "G"~g3 edB | "Am"A3 A2 :|
